Obsidian/actions/22s/remove-link.svg

<svg height="22" viewBox="0 0 22 22" width="22" xmlns="http://www.w3.org/2000/svg"><path d="m5 0c-2.77 0-5 2.23-5 5s2.23 5 5 5h2v-2h-2c-1.662 0-3-1.338-3-3s1.338-3 3-3h2v-2zm4 0v2h2c1.662 0 3 1.338 3 3s-1.338 3-3 3h-2v2h2c2.77 0 5-2.23 5-5s-2.23-5-5-5zm-4 4v2h6v-2zm7.414062 7.050781-1.414062 1.414063 1.060547 1.060547-1.060547 1.060547 1.414062 1.414062 1.060547-1.060547 1.060547 1.060547 1.414063-1.414062-1.060547-1.060547 1.060547-1.060547-1.414063-1.414063-1.060547 1.060547z" fill="#bebebe" transform="translate(3 3)"/></svg>

<svg xmlns="http://www.w3.org/2000/svg" width="22" height="22" viewBox="0 0 22 22">
 <defs>
  <style id="current-color-scheme" type="text/css">
   .ColorScheme-Text { color:#bebebe; } .ColorScheme-Highlight { color:#4285f4; }
  </style>
 </defs>
 <path style="fill:currentColor" class="ColorScheme-Text" d="M 5 0 C 2.23 0 0 2.23 0 5 C 0 7.77 2.23 10 5 10 L 7 10 L 7 8 L 5 8 C 3.338 8 2 6.662 2 5 C 2 3.338 3.338 2 5 2 L 7 2 L 7 0 L 5 0 z M 9 0 L 9 2 L 11 2 C 12.662 2 14 3.338 14 5 C 14 6.662 12.662 8 11 8 L 9 8 L 9 10 L 11 10 C 13.77 10 16 7.77 16 5 C 16 2.23 13.77 0 11 0 L 9 0 z M 5 4 L 5 6 L 11 6 L 11 4 L 5 4 z M 12.414062 11.050781 L 11 12.464844 L 12.060547 13.525391 L 11 14.585938 L 12.414062 16 L 13.474609 14.939453 L 14.535156 16 L 15.949219 14.585938 L 14.888672 13.525391 L 15.949219 12.464844 L 14.535156 11.050781 L 13.474609 12.111328 L 12.414062 11.050781 z" transform="translate(3 3)"/>
</svg>
